X:1
T:Title
%%score ( 1 2 ) ( 3 4 )
L:1/8
Q:1/4=97
M:4/4
K:F
V:1 treble nm="Grand Piano, Soprano"
V:2 treble 
V:3 bass nm="Choir Pad, Bass"
V:4 bass 
V:1
 [A,F][B,G] [CA]2- [CA][_EA][DB]D | .A2 z2 z4 | z4 z2 .c2 | z2 .A4 z2 | [Ec]2 [Fc]2 [Ff]2 ed | %5
w: By~Henry~Bennett~(1813\-1868) * * * * * *|||||
 Bd [Fd]2- [Fd][Fc] [Fc]2 | [_EA]2 AG ed [Fc]2 | [CE]2 [EG]2- [EG]F F2- | F6 z2 |] %9
w: ||||
V:2
 x8 | D-[DG] [CF]2 [CE]2 [CF]2- | [CF][CG] [CA]2 [_Ec]2 D-[DB] | DB C2 F[EG] [EG]2 | z4 z2 F2 | %5
 F2 z2 z4 | z2 D2 F2 z2 | x8 | x8 |] %9
V:3
 z4 z2 .F,2 | A,B,A,C B,G, [F,A,]2- | [F,A,][E,G,] F,2 [A,,F,]2 [B,,^F,]2 | %3
 [B,,G,]2 A,2 C[C,C] [C,C]2 | [B,C]2 [A,C]2 [F,A,]2 [B,,B,]2 | %5
 B,-[B,,B,] [F,B,]2- [F,B,][F,A,] [F,A,]2 | F,^F, [B,,G,]2 [=B,,_A,]2 [C,=A,]2 | %7
 [C,_A,]2 [C,B,]2- [C,B,][F,=A,] [F,A,]2- | [F,A,]6 z2 |] %9
V:4
 [F,,F,]2 [F,,F,]2- [F,,F,][F,,F,]B,,-[B,,G,] | B,,2 C,2 C,2 z2 | x8 | z2 .C,4 z2 | x8 | %5
 .D,2 z2 z4 | C,2 z2 z4 | x8 | x8 |] %9

